!!!ONB: MCCC : IJB0063_02 : Extracted Monophonic Melody
!!!COM: Bach, Johann Sebastian
!!!OPR: Cello Suite No.1
!!!OMV: 2
!!!SCT: BWV 1007
!!!ODT: 1717///
**kern
*staff1
*clefF4
*k[f#]
*G:
*M4/4
16B
=1
[4B
16B]
16A
16G
16F#
16G
16D
16E
16F#
16G
16A
16B
16c
=2
16d
16B
16G
16F#
16G
16E
16D
16C
16BB
16C
16D
16E
16F#
16G
16A
16B
=3
16c
16A
16G
16F#
16G
16E
16F#
16G
16AA
16D
16F#
16G
16A
16B
16c
16A
=4
16B
16G
16G
16D
16D
16BB
16BB
16GG
8.GG
16B
16c
16B
16A
16G
=5
16A
16B
16c
16A
16G
16F#
16G
16A
8.D#
16c
16B
16A
16G
16F#
=6
16G
16E
16E
16BB
16BB
16GG
16GG
16EE
8.EE
16BB
16E
16G
16F#
16A
=7
16G
16F#
16E
16F#
16G
16c#
16G
16F#
16G
16c#
16E
16F#
16G
16E
16AA
16G
=8
8F#
16D
16E
16F#
16D
16G
16E
16F#
16D
16F#
16G
16A
16B
16c
16A
=9
16B
16D
16GG
16D
16B
16G
16A
16F#
16G
16E
16G
16A
16B
16c#
16d
16B
=10
16c#
16E
16GG
16E
16c#
16A
16B
16d
16c#
16A
16d
16B
16c#
16A
16e
16G
=11
8.F#
16d
16A
16G
16F#
16E
16D
16A
16G
16E
16F#
16D
16A
16C
=12
8.BB
16G
16D
16C
16BB
16AA
16GG
16D
16C
16AA
16BB
16GG
16D
16FF#
=13
16EE
16GG
16AA
16BB
16C#
16D
16E
16F#
16G
16A
16c#
16d
16e
16A
8g
=14
16D
16g
16f#
16e
16f#
16d
16A
16d
16D
16F#
16A
16c
8.B
16A
=15
8.B
16A
16G
16F#
16E
16d
16c#
16e
16A
16G
16F#
16D
16AA
16C#
=16
8.DD
16AA
16D
16F#
16A
16c#
16d
16A
16F#
16D
8.DD
16A
=17
[4A
16A]
16F#
16G
16A
16D
16E
16F#
16G
16A
16F#
16D
16C
=18
16BB
16D
16G
16F#
16G
16A
16B
16c
16d
16B
16A
16G
16F
16E
16F
16d
=19
8E
8C
16c
16AA
16BB
16C
16DD
16c
16B
16c
16d
16B
16c
16A
=20
8G#
8E
16B
16D
16C
16BB
16C
16E
16F#
16G#
16A
16c
16B
16A
=21
8d
16BB
16C
16D
16E
16F
16AA
8.GG#
16E
16B
16d
16c
16B
=22
8.c
16B
16A
16G
16F
16E
16F
16D
16B-
16A
16B-
16c
16d
16A
=23
16G#
16A
16B
16E
16F
16D
16C
16BB
16C
16E
16A
16B
8.B
16A
=24
8.A
16B
16c
16B
16c
16G
16F#
16G
16A
16E
16D
16C
16BB
16AA
=25
16GG
16D
16F#
16c
16B
16A
16G
16A
16B
16c
16d
16e
16d
16e
16f
16d
=26
8e
8G
16C
16d
16c
16B
16A
16B
16c
16e
8.d
16c
=27
8d
8A
16BB
16c
16B
16A
16G
16F#
16E
16G
16B
16d
16c
16B
=28
8c
8G
16AA
16E
16F#
16G
16F#
16A
16B
16c
16D
16C
16BB
16AA
=29
16GG
16D
16F#
16A
16c
16A
16F#
16D
8.B
16D
16E
16G
16A
16c#
=30
16d
16A
16F#
16E
16D
16F
16G
16B
16c
16G
16E
16D
16C
16E
16A
16c
=31
16F#
16A
16c
16e
8.d
16C
16BB
16G
16AA
16GG
16DD
16AA
16G
16F#
=32
16G
16GG
16BB
16D
16G
16B
16d
16f#
16g
16d
16B
16G
8.GG
16r
=33
[4A
16A]
16F#
16G
16A
16D
16E
16F#
16G
16A
16F#
16D
16C
=34
16BB
16D
16G
16F#
16G
16A
16B
16c
16d
16B
16A
16G
16F
16E
16F
16d
=35
8E
8C
16c
16AA
16BB
16C
16DD
16c
16B
16c
16d
16B
16c
16A
=36
8G#
8E
16B
16D
16C
16BB
16C
16E
16F#
16G#
16A
16c
16B
16A
=37
8d
16BB
16C
16D
16E
16F
16AA
8.GG#
16E
16B
16d
16c
16B
=38
8.c
16B
16A
16G
16F
16E
16F
16D
16B-
16A
16B-
16c
16d
16A
=39
16G#
16A
16B
16E
16F
16D
16C
16BB
16C
16E
16A
16B
8.B
16A
=40
8.A
16B
16c
16B
16c
16G
16F#
16G
16A
16E
16D
16C
16BB
16AA
=41
16GG
16D
16F#
16c
16B
16A
16G
16A
16B
16c
16d
16e
16d
16e
16f
16d
=42
8e
8G
16C
16d
16c
16B
16A
16B
16c
16e
8.d
16c
=43
8d
8A
16BB
16c
16B
16A
16G
16F#
16E
16G
16B
16d
16c
16B
=44
8c
8G
16AA
16E
16F#
16G
16F#
16A
16B
16c
16D
16C
16BB
16AA
=45
16GG
16D
16F#
16A
16c
16A
16F#
16D
8.B
16D
16E
16G
16A
16c#
=46
16d
16A
16F#
16E
16D
16F
16G
16B
16c
16G
16E
16D
16C
16E
16A
16c
=47
16F#
16A
16c
16e
8.d
16C
16BB
16G
16AA
16GG
16DD
16AA
16G
16F#
=48
16G
16GG
16BB
16D
16G
16B
16d
16f#
16g
16d
16B
16G
8.GG
==
*-
